vendor/shopware/storefront/Resources/app/storefront/dist/assets/icon/default/target-with-block.svg

<svg xmlns="http://www.w3.org/2000/svg" width="24" height="24" viewBox="0 0 24 24">
  <path fill="#758CA3" fill-rule="evenodd" d="M16,21.8999819 C14.0408696,21.5022994 12.4977006,19.9591304 12.1000181,18 L11,18 C10.4477153,18 10,17.5522847 10,17 C10,16.4477153 10.4477153,16 11,16 L12.1000181,16 C12.4977006,14.0408696 14.0408696,12.4977006 16,12.1000181 L16,11 C16,10.4477153 16.4477153,10 17,10 C17.5522847,10 18,10.4477153 18,11 L18,12.1000181 C19.9591304,12.4977006 21.5022994,14.0408696 21.8999819,16 L23,16 C23.5522847,16 24,16.4477153 24,17 C24,17.5522847 23.5522847,18 23,18 L21.8999819,18 C21.5022994,19.9591304 19.9591304,21.5022994 18,21.8999819 L18,23 C18,23.5522847 17.5522847,24 17,24 C16.4477153,24 16,23.5522847 16,23 L16,21.8999819 Z M11.0384048,20 C11.5906896,20 12.0384048,20.4477153 12.0384048,21 C12.0384048,21.5522847 11.5906896,22 11.0384048,22 L3,22 C1.34314575,22 2.77555756e-15,20.6568542 -2.22044605e-16,19 L-9.86076132e-32,3 C-1.66533454e-16,1.34314575 1.34314575,3.33066907e-16 3,0 L19,8.8817842e-16 C20.6568542,5.55111512e-16 22,1.34314575 22,3 L22,11 C22,11.5522847 21.5522847,12 21,12 C20.4477153,12 20,11.5522847 20,11 L20,3 C20,2.44771525 19.5522847,2 19,2 L3,2 C2.44771525,2 2,2.44771525 2,3 L2,19 C2,19.5522847 2.44771525,20 3,20 L11.0384048,20 Z M17,20 C18.6568542,20 20,18.6568542 20,17 C20,15.3431458 18.6568542,14 17,14 C15.3431458,14 14,15.3431458 14,17 C14,18.6568542 15.3431458,20 17,20 Z"/>
</svg>

<svg xmlns="http://www.w3.org/2000/svg" width="24" height="24" viewBox="0 0 24 24"><path fill="#758CA3" fill-rule="evenodd" d="M16 21.9c-1.9591-.3977-3.5023-1.9409-3.9-3.9H11c-.5523 0-1-.4477-1-1s.4477-1 1-1h1.1c.3977-1.9591 1.9409-3.5023 3.9-3.9V11c0-.5523.4477-1 1-1s1 .4477 1 1v1.1c1.9591.3977 3.5023 1.9409 3.9 3.9H23c.5523 0 1 .4477 1 1s-.4477 1-1 1h-1.1c-.3977 1.9591-1.9409 3.5023-3.9 3.9V23c0 .5523-.4477 1-1 1s-1-.4477-1-1v-1.1zM11.0384 20c.5523 0 1 .4477 1 1s-.4477 1-1 1H3c-1.6569 0-3-1.3431-3-3V3c0-1.6569 1.3431-3 3-3h16c1.6569 0 3 1.3431 3 3v8c0 .5523-.4477 1-1 1s-1-.4477-1-1V3c0-.5523-.4477-1-1-1H3c-.5523 0-1 .4477-1 1v16c0 .5523.4477 1 1 1h8.0384zM17 20c1.6569 0 3-1.3431 3-3s-1.3431-3-3-3-3 1.3431-3 3 1.3431 3 3 3z"/></svg>
